[A]
T3@0
L1V15,1O6DFGV14,1DFGV13,1DFGV12,1DFGV11,1DFG3R9
L1L1V15,1O6DFGV14,1DFGV13,1DFGV12,1DFGV11,1DFG3V15,4R7R5RO5DFD
L3O5FGGGO6C4O5B-1R5R7R5R1D1F1D1
L3O5FGGGO6C4O5B-1R5R7R5R1D1F1D1
L3O5FGGGO6C4O5B-1R5R3L1O6CO5A-A-FDCL0O3B-O4CO3B-O4CDFDFL1B-O5CDF
L3O5RGGGO6C4O5B-1RO6DR1D1DR5R7
L3R7O4B-O5CDE-5E-B-5R7
L3O5C5O5AA5GFD6R5R5DF
L3O5C5O4B-5O5C5O4B-5O5DF5D5RDF
L3O5G5F5DCO4B-O5D5RE-DRE-D5R9
L3R7O4B-O5CDE-5E-B-5R7
L3O5C5O5AA5GFD6R5R5DF
L3O5C5O4B-5O5C5O4B-5O5DF5D5RDF
L3O5G5G5A3F5G5RFGRFG5R9
L3R7O5RGGG6F5DCO4B-O5D7R
L3O5RFFF6D5C5DO4B-7R
L3O5RGGG6F5DCO4B-O5F7R
L3O5RFF5F5DF5A5G6R5
L3O5GFE-F5FD7R5
L3R7O5GFE-F5FD7DE-6
L3O5DE-5RFG6FG5RGA9R
L5O5B-AB-AB-3AB-3A7R9
L3O5D5F5G6B-5AAGG5R5
L3O5D5F5G5RB-5AAGG5R5
L3O5D5F5G5RB-5AAGG5R5
L3O5D5F5G5RB-5AAGG5
L3V15,4O5FG5RV13,4O5FG4R1RV15,4O5FG5RV13,4O5GF4R1RV15,4O5FG5RR5R7
L3R7R5V15,4O5FG5RV13,4O5FG4R1RV15,4O5FG5RV13,4O5GF4R1RV15,4O5B-G5RR5V13,9O4B-7
L9O5D
V15,4L3O5D5F5G6B-5AAGG5R5
L3O5D5F5G5RB-5AAGG5R5
L3O5D5F5G5RB-5AAGG5R5
L3O5D5F5G5RB-5AAGG5
L3V15,4O5FG5RV13,4O5FG4R1RV15,4O5FG5RV13,4O5GF4R1RV15,4O5FG5RR5R7
L3R7R5V15,4O5FG5RV13,4O5FG4R1RV15,4O5FG5RV13,4O5GF4R1RV15,4O5B-G5RR5R7
L3R5O5FG4R1RR5

[B]
T3@0
L1O6V13,1DD3DD3V12,1DD3DD3D3V11,1DDR3D4V10,1DD3DD3V9,1DD3DD
L1O6V13,1DD3DD3V12,1DD3DD3D3V11,1DDR3D4V10,1DD3DD3V9,1DD3DD
V13,3L3O5DDDDF4G1R5R7R5R1O4B-1O5D1O4B-1
L3O5E-E-E-E-G4G1R5R7R5R1O4B-1O5D1O4B-1
L3O5CCCCE-4E-1R5RL1AFCCO4AAL0O3B-B-B-CDFDCL1FGAO5C
L3O5RDDDG4G1RAR1A1AR5R7
V13,8L9O5DO4E-7R3O5E-6
L9O4AB-6O5D5D6
L9O5CD
L3O5E-7D7D5E-DRE-V13,1L0RE-FGAB-O6CDV13,4L3E-DRE-D5R5
V13,8L9O5DE-
L9O5FD6O4B-5O5D6
L9O5CD
L3O5G7F7G5FGRFV13,1L0RFGAB-O6CDE-V13,4L3FGRFG5R5
L9RR
L9RR
L9RR
L9RR
V13,4L1O5RGG3G3FGV15,4L3O5E-DCD5DO4B-7R5
V13,4L1O5RGG3G3FGV15,4L3O5E-DCD5DO4B-7R5
L3R9R7R5O5GG9R
L5O5F+F+F+F+F+3F+F+3F+7R9
V13,4L3O4D5F5G6B-5AAGG5R5
L3O4D5F5G5RB-5AAGG5R5
L3O4D5F5G5RB-5AAGG5R5
L3O4D5F5G5RB-5AAGG5
L3O4FG5RFG4R1RFG5RGF4R1RFG5RR5R7
L3R7R5O4FG5RFG4R1RFG5RGF4R1RB-GV13,9O4G7O5D7
L9O5G
V13,4L3O4D5F5G6B-5AAGG5R5
L3O4D5F5G5RB-5AAGG5R5
L3O4D5F5G5RB-5AAGG5R5
L3O4D5F5G5RB-5AAGG5
L3O4FG5RFG4R1RFG5RGF4R1RFG5RR5R7
L3R7R5O4FG5RFG4R1RFG5RGF4R1RB-G5O5GFDCDO4F1F+1G
V15,4L3O5R5CD4R1RR5

[C]
T3@0
V14,4L9RR
L9RR
L1O2G4GG5R5CDFGG4DO1GO2G4R5D3DO1F
L1O2G4O3GO2G5R5CGDFG3DDG5DO3DE-3O2F3G3
L1O2G4GG5R5CDFGG3C3C3C3CC3DB-3A3
L1O2G3DDO1G3O2G3DD4G3E-3RE-E-3R5R5D5
L1O2G3O3GGO2G3O3G3R5O2GB-O3FGO2G3O3GGO2G3O3G3R5O2FAO3CD
L1O2F3O3FFO2F3O3F3R5O2FGO3DFO2G3O3GGO2G3O3G3O2GGG3G5
L1O3C3CO2B-O3CO4C4O3CCO2B-3O3C3O2GO3CD3DCDO4D4O3D3DCD3O2GO3C
L3O3E-E-E-E-O2B-B-B-O3D5RDDRDD5DDRDD5O4D5
L1O2G3O3GGO2G3O3G3R5O2GB-O3FGO2G3O3GGO2G3O3G3R5O2FAO3CD
L1O2F3O3FFO2F3O3F3R5O2FGO3DFO2G3O3GGO2G3O3G3O2GGG3G5
L1O3C3CO2B-O3CO4C4O3CCO2B-3O3C3O2GO3CD3DCDO4D4O3D3DCD3O2GO3C
L3O3GGGGF1F1FFG5O4GO3GGGO4GO3GGGGRGG5R5
L3O3E-E-5O2B-O3E-E-5O2B-O3E-6E-R5O2B-O3E-
L3O3DD5O2B-O2DD5O2B-O3D6DR5RO2B-
L3O3E-E-5O2B-O3E-E-5O2B-E-6E-R5O2B-O3E-
L3O3DD5O2B-O3DD5O2B-O3D7RO2B-O3E-5
L3O3E-E-E-E-E-E-E-E-DDDDDDDD
L3O3E-E-E-E-E-E-E-E-DDDDDDDC6
L3O3CCC1O4C1O3CCD-5D-D-D-D-1O4D-1O3D-D-D5DDDD1O4D1O3ODD
L3O3DDDDDDDDDD5DD7RO4C1DO3F1GD1DF1G1A1C1O2B-1
L3O2GGGGG1O3D4O2GG1G1FFFFF1O3CD1DF
L3O3E-E-E-E-O2G1GO3E-1O2B-B-1O3C1FF5F5F5F
L3O2GGGGG1O3D4O2GG1G1FFFFF1O3CD1DF
L3O3E-E-E-E-O2G1GO3E-1O2B-B-1O3C1FF5F5F5F
L1O3E-3E-3E-5E-B-FGGDE-FF3F3F5FB-FGGDFGGG4G5G3GGGGG3
L1O3G3O4CD3O3B-O4C3O3GGG3G3E-3E-3E-3E-5E-B-FGGDE-FF3F3F5FB-FGGDFGG3GGG5G3GGG5
L1O3FGO4CD3O3FG3O2GGG3G3GG
L3O2GGGGG1O3D4O2GG1G1FFFFF1O3CD1DF
L3O3E-E-E-E-O2G1GO3E-1O2B-B-1O3C1FF5F5F5F
L3O2GGGGG1O3D4O2GG1G1FFFFF1O3CD1DF
L3O3E-E-E-E-O2G1GO3E-1O2B-B-1O3C1FF5F5F5F
L1O3E-3E-3E-5E-B-FGGDE-FF3F3F5FB-FGGDFGGG4G5G3GGGGG3
L1O3G3O4CD3O3B-O4C3O3GGG3G3E-3E-3E-3E-5E-B-FGGDE-FF3F3F5FB-FGGDFGRGFDCDO2F1F+1G
V15,4L3O2R5FG4R1RR5
