[A]
T3@0V15,4
L5O5F+GF+GF+F+3G6F+
L5O5F+GF+GF+F+3G6F+
L5O5EFEFEE3F6E
L5O5EFEFEE3F6O6D3D3

[B]
T3@0V13,4
L5O5DDDDDD3D6D
L5O5DDDDDD3D6D
L5O5CCCCCC3C6C
L5O5CCCCCC3C6A3A3

[C]
T3@0V14,4
L3O3DDDDDDDDDDDDDDDD
L3O3DDDDDDDDDDDDDO4DO3DO2A
L3O3CCCCCCCCCO4CO3CO4CO3CCCC
L3O3CCCCCCO2GAO3CCCC6O4DD